X:212
T:Connie the Soldier
R:jig
H:Related to The Southwest Wind, #159
H:Related to Jackson's Trip to Dover, #120
H:Related to Connie the Soldier, #440
D:John McKenna
D:Patrick Street 2
Z:id:hn-jig-212
M:6/8
K:Amix
EAA ABd|cAG E2D|EFG EFG|EAF GED|
EAA ABd|cAG E2d|cBc ABG|1 FDD D2E:|2 FDD D2e||
|:fed dcd|fed d2e|fed e2d|cAA A2e|
fga efg|fed fed|cBc ABG|1 FDD D2e:|2 FDD D2E||

